X: 3
T: The Rollicking Boys Of Tandragee
R: jig
M: 6/8
L: 1/8
K: Emin
d|:~B3 ~E3|BAB d2B|ABA DED|AFD FGA
BAB ~E3|BAB def|edB AFA|BEE E2A:|
|:B2e efe|def afd|e2d dcd|Bcd dBA|
B2e efe|def afd|edB AFA|BEE E2A:|


Tune 1392	Setting 28887

